svgs/light/dumpster.svg

<svg xmlns="http://www.w3.org/2000/svg" viewBox="0 0 576 512"><!-- Font Awesome Pro 6.0.0-alpha2 by @fontawesome - https://fontawesome.com License - https://fontawesome.com/license (Commercial License) --><path d="M560 256H533.25L536.812 224H504.719L483.531 416H92.469L71.281 224H39.062L42.625 256H16C7.199 256 0 263.199 0 272C0 280.799 7.199 288 16 288H46.25L64 448V464C64 472.836 71.164 480 80 480S96 472.836 96 464V448H480V464C480 472.836 487.164 480 496 480S512 472.836 512 464V448L529.75 288H560C568.801 288 576 280.799 576 272C576 263.199 568.801 256 560 256ZM16 192H560C570.375 192 578 179.75 575.5 167.125L543.5 47.125C541.75 38.25 535.25 32 528 32H48C40.75 32 34.25 38.25 32.5 47.125L0.5 167.125C-2 179.75 5.625 192 16 192ZM514.25 64L541.375 160H462.75L443.5 64H514.25ZM304 64H410.875L430.125 160H304V64ZM165.125 64H272V160H145.875L165.125 64ZM61.75 64H132.5L113.25 160H34.625L61.75 64Z"/></svg>

<svg xmlns="http://www.w3.org/2000/svg" viewBox="0 0 576 512"><!--! Font Awesome Pro 6.0.0-alpha3 by @fontawesome - https://fontawesome.com License - https://fontawesome.com/license (Commercial License) --><path d="M560 256h-26.75l3.562-32h-32.09l-21.19 192H92.47L71.28 224H39.06l3.562 32H16C7.199 256 0 263.2 0 272C0 280.8 7.199 288 16 288h30.25L64 448v16C64 472.8 71.16 480 80 480S96 472.8 96 464V448h384v16c0 8.836 7.164 16 16 16s16-7.164 16-16V448l17.75-160H560C568.8 288 576 280.8 576 272C576 263.2 568.8 256 560 256zM16 192h544c10.38 0 17.1-12.25 15.5-24.88l-32-120C541.8 38.25 535.3 32 528 32h-480C40.75 32 34.25 38.25 32.5 47.13l-32 120C-2 179.8 5.625 192 16 192zM514.3 64l27.12 96h-78.63L443.5 64H514.3zM304 64h106.9l19.25 96H304V64zM165.1 64H272v96H145.9L165.1 64zM61.75 64H132.5L113.2 160H34.63L61.75 64z"/></svg>
